X: 88
T:Bourree a Jenzat
M:2/4
L:1/8
C:Traditional
R:Bourree
Z:Steve Mansfield
K:D minor
D |: G2 A2 | d3 c | A>B cA | B2 AD | G2 A2 | d3 c | 
A>B cA |1B2 AD :|2 B2 A2|:[K:G] A>B cA | G>A BG | 
F>G AF | D2 D2 | A>B cA | Bd BG | A>c AF | G4 :|

